X: 4899
T: Branch Line, The
R: polka
M: 2/4
K: Gmajor
e|dB GG|FA Ac|BG Bd|g2 ge|
dB GG|FA Ac|BB dd|G2 G:|
d|ef gg|af dd|ef gg|a2 dd|
ef gg|fa gf|ed ef g2 g:|

